!!!COM: Beethoven, Ludwig van
!!!CDT: 1770-1827
!!!OTL: Piano Sonata no. 23 in F minor
!!!OTP: appassionata
!!!ODT: 1804-1805
!!!ODE: Comte Franz de Brunswick
!!!OPS: 57
!!!OMV: 3
!!!OMD: Allegro ma non troppo
**kern	**kern	**dynam
*staff2	*staff1	*staff1/2
*Ipiano	*Ipiano	*Ipiano
*>[A,B,B1,B,B2,D,D1,D,D2,E,E1,E,E2,F]	*>[A,B,B1,B,B2,D,D1,D,D2,E,E1,E,E2,F]	*>[A,B,B1,B,B2,D,D1,D,D2,E,E1,E,E2,F]
*>norep[A,B,B2,D,D2,E,E2,F]	*>norep[A,B,B2,D,D2,E,E2,F]	*>norep[A,B,B2,D,D2,E,E2,F]
*>A	*>A	*>A
*clefF4	*clefG2	*
*k[b-e-a-d-]	*k[b-e-a-d-]	*k[b-e-a-d-]
*f:	*f:	*f:
*M2/4	*M2/4	*M2/4
*MM144	*MM144	*MM144
=1-	=1-	=1-
*ped	*	*
4.BB- 4.G	4.en 4.dd-	ff
8BB- 8G	8e 8dd-	.
=2	=2	=2
4.BB- 4.G	4.en 4.dd-	.
8BB- 8G	8e 8dd-	.
=3	=3	=3
8.BB- 8.GL	8.en 8.dd-L	.
16BB- 16GJk	16e 16dd-Jk	.
8.BB- 8.GL	8.e 8.dd-L	.
16BB- 16GJk	16e 16dd-Jk	.
=4	=4	=4
8.BB- 8.GL	8.en 8.dd-L	.
16BB- 16GJk	16e 16dd-Jk	.
8.BB- 8.GL	8.e 8.dd-L	.
16BB- 16GJk	16e 16dd-Jk	.
=5	=5	=5
4BB- 4G	4en 4dd-	.
*Xped	*	*
4r	8r	.
.	16ddd-LL	p
.	16cccJJ	.
=6	=6	=6
2r	16bb-LL	.
.	16ccc	.
.	16bb-	.
.	16aa-JJ	.
.	16ggLL	.
.	16aa-	.
.	16gg	.
.	16ffJJ	.
=7	=7	=7
2r	4een	.
.	8r	.
.	16dd-LL	.
.	16ccJJ	.
!!LO:LB:g=original
=8	=8	=8
2r	16b-LL>	.
.	16cc	.
.	16b-	.
.	16a-JJ	.
.	16gLL	.
.	16a-	.
.	16g	.
.	16fJJ	.
=9	=9	=9
2r	4en	.
.	8r	.
.	16dd-LL	.
.	16ccJJ	.
=10	=10	=10
2r	16b-LL>	<
.	16cc	.
.	16b-	.
.	16a-JJ	.
.	16gLL	.
.	16a-	.
.	16g	.
.	16fJJ	.
=11	=11	=11
2r	16enLL	.
.	16f	.
.	16e	.
.	16d-JJ	.
.	16cLL	.
.	16d-	.
.	16c	.
.	16BnJJ	.
*	*clefF4	*
=12	=12	=12
2r	16B-XLL	.
.	16c	.
.	16B-	.
.	16A-JJ	.
.	16GLL	.
.	16A-	.
.	16G	.
.	16FJJ	.
!!LO:LB:g=original
=13	=13	=13
4r	16EnLL	.
.	16F	.
.	16E	.
.	16D-JJ	.
16CCLL	16CLL	f
16DD-	16D-	.
16CC	16C	.
16BBBnJJ	16BBnJJ	.
=14	=14	=14
16CCLL	16CLL	.
16DD-	16D-	.
16CC	16C	.
16BBBnJJ	16BBnJJ	.
16CCLL	16CLL	.
16DD-	16D-	.
16CC	16C	.
16BBBJJ	16BBJJ	.
=15	=15	=15
16CCLL	16CLL	.
16DD-	16D-	.
16CC	16C	.
16BBBnJJ	16BBnJJ	.
16CCLL	16CLL	.
16DD-	16D-	.
16CC	16C	.
16BBBJJ	16BBJJ	.
=16	=16	=16
16BBB-LL	16BB-LL	.
16CC	16C	.
16BBB-	16BB-	.
16AAAnJJ	16AAnJJ	.
16BBB-LL	16BB-LL	.
16CC	16C	.
16BBB-	16BB-	.
16AAAJJ	16AAJJ	.
=17	=17	=17
16BBB-LL	16BB-LL	.
16CC	16C	.
16BBB-	16BB-	.
16AAAnJJ	16AAnJJ	.
16BBB-LL	16BB-LL	.
16CC	16C	.
16BBB-	16BB-	.
16AAAJJ	16AAJJ	.
!!LO:LB:g=original
=18	=18	=18
16BBB-LL	16BB-LL	>
16CC	16C	.
16BBB-	16BB-	.
16AAAnJJ	16AAnJJ	.
16BBB-LL	16BB-LL	.
16CC	16C	.
16BBB-	16BB-	.
16AAAJJ	16AAJJ	.
=19	=19	=19
16BBB-LL	16BB-LL	.
16GGG	16GG	.
16AAA-X	16AA-X	.
16BBB-JJ	16BB-JJ	.
16CCLL	16CLL	.
16BBB-	16BB-	.
16AAA-	16AA-	.
16GGGJJ	16GGJJ	.
=20	=20	=20
4FFF	16r	pp
.	16CLL	.
.	16F	.
.	16A-JJ	.
4r	16cLL	.
.	16d-	.
.	16c	.
.	16B-JJ	.
=21	=21	=21
4r	16A-LL	.
.	16B-	.
.	16A-	.
.	16GJJ	.
8.r	16FLL	.
.	16G	.
.	16A-	.
16FF	16FJJ	.
=22	=22	=22
4FFF	16r	.
.	16CLL	.
.	16F	.
.	16A-JJ	.
4r	16cLL	.
.	16d-	.
.	16c	.
.	16B-JJ	.
!!LO:LB:g=original
=23	=23	=23
4r	16A-LL	.
.	16B-	.
.	16A-	.
.	16GJJ	.
8.r	16FLL	.
.	16G	.
.	16A-	.
16FF	16FJJ	.
=24	=24	=24
4BBB-	16r	.
.	16D-LL	.
.	16G-	.
.	16B-JJ	.
4r	16d-LL	.
.	16e-	.
.	16d-	.
.	16cJJ	.
=25	=25	=25
4r	16B-LL	.
.	16c	.
.	16B-	.
.	16A-JJ	.
8.r	16G-LL	.
.	16A-	.
.	16G-	.
16DD-	16FJJ	.
=26	=26	=26
8CC	16EnLL	.
.	16F	.
8r	16Gn	.
.	16EJJ	.
8DD-	16FLL	.
.	16G	.
8r	16A-	.
.	16FJJ	.
=27	=27	=27
8BBB-	16GLL	.
.	16A-	.
8r	16B-	.
.	16GJJ	.
8CC	16EnLL	.
.	16F	.
8r	16G	.
.	16EJJ	.
=28	=28	=28
4FFF 4FF	16FLL	.
.	16C	.
.	16F	.
.	16A-JJ	.
8.r	16cLL	.
.	16d-	.
.	16c	.
*clefG2	*	*
16a- 16cc	16B-JJ	.
!!LO:LB:g=original
=29	=29	=29
(4a-/ 4cc/	16A-LL	sf
.	16B-	.
.	16A-	.
.	16GJJ	.
8f) 8a-	16FLL	.
.	16G	.
8r	16A-	.
.	16FJJ	.
*clefF4	*	*
=30	=30	=30
4FFF 4FF	16r	.
.	16CLL	.
.	16F	.
.	16A-JJ	.
8.r	16cLL	.
.	16d-	.
.	16c	.
*clefG2	*	*
16a-/ 16cc/	16B-JJ	.
=31	=31	=31
(4a-/ 4cc/	16A-LL	sf
.	16B-	.
.	16A-	.
.	16GJJ	.
8f) 8a-	16FLL	.
.	16G	.
8r	16A-	.
.	16FJJ	.
*clefF4	*	*
=32	=32	=32
4BBB- 4BB-	16r	.
.	16D-LL	.
.	16G-	.
.	16B-JJ	.
8.r	16d-LL	.
.	16e-	.
.	16d-	.
*clefG2	*	*
16b- 16dd-	16cJJ	.
=33	=33	=33
2b- 2dd-	16B-LL	sf
.	16c	.
.	16B-	.
.	16A-JJ	.
.	16G-LL	.
.	16A-	.
.	16G-	.
.	16FJJ	.
!!LO:LB:g=original
=34	=34	=34
8b- 8cc	16EnLL	.
.	16F	.
*clefF4	*	*
8CC 8C	16Gn	.
.	16EJJ	.
8r	16FLL	.
.	16G	.
8DD- 8D-	16A-	.
.	16FJJ	.
=35	=35	=35
8r	16GLL	.
.	16A-	.
8BBB- 8BB-	16B-	.
.	16GJJ	.
8r	16EnLL	.
.	16F	.
8CC 8C	16G	.
.	16EJJ	.
=36	=36	=36
4FFF 4FF	16F	.
*	*clefG2	*
.	16cLL	<
.	16f	.
.	16a-JJ	.
8.r	16ccLL	.
.	16c	.
.	16f	.
16F 16A-	16a-JJ	.
=37	=37	=37
4F 4A-	16r	.
.	16cLL	.
.	16f	.
.	16a-JJ	.
8.r	16ccLL	.
.	16c	.
.	16f	.
16F 16A-	16a-JJ	[
=38	=38	=38
*	*^	*
!LO:DY:rj	!	!	!
([2Cz 2Fz 2A-z	4ryy	16r	.
.	.	16BnLL	.
.	.	16dn	.
.	.	16a-JJ	.
.	(16bnLL	4bn	.
.	16B	.	.
.	16d	.	.
.	16a-JJ	.	.
!!LO:LB:g=original
=39	=39	=39	=39
8C] 8En 8G)	16bnLL	4bn	>
.	16Bn	.	.
8r	16en	.	.
.	16gJJ	.	.
4r	16ccLL	4cc)	.
.	16c	.	.
.	16e	.	.
.	16gJJ	.	]
*	*v	*v	*
=40	=40	=40
4CC 4C	16r	.
.	16cLL	<
.	16en	.
.	16gJJ	.
8.r	16ccLL	.
.	16c	.
.	16e	.
16G 16B-X	16gJJ	.
=41	=41	=41
4G 4B-	16r	.
.	16cLL	.
.	16en	.
.	16gJJ	.
8.r	16ccLL	.
.	16c	.
.	16e	.
16G 16B-	16gJJ	[
=42	=42	=42
*	*^	*
!LO:DY:a	!	!	!
[2Fz^< 2Gz^< (2B-z^<	4ryy	16r	.
.	.	16cLL	.
.	.	16en	.
.	.	16gJJ	.
.	16ccLL	4cc	.
.	16c	.	.
.	16e	.	.
.	16gJJ	.	.
=43	=43	=43	=43
8F] 8A-)	16ccLL	4cc	>
.	16c	.	.
8r	16en	.	.
.	16gJJ	.	.
4r	16ccLL	4cc	.
.	16c	.	.
.	16f	.	.
.	16a-JJ	.	]]
*	*v	*v	*
!!LO:LB:g=original
=44	=44	=44
4FF 4F	16r	.
.	16fLL	<
.	16an	.
.	16ccJJ	.
8.r	16ffLL>	.
.	16f	.
.	16a	.
16c 16e-X	16ccJJ	.
=45	=45	=45
4c 4e-	16r	.
.	16fLL	.
.	16an	.
.	16ccJJ	.
8.r	16ffLL>	.
.	16f	.
.	16a	.
16c 16e-	16ccJJ	.
=46	=46	=46
*	*^	*
[2B- [2c [2e-	16r	4ryy	sf
.	16fLL	.	.
.	16an	.	.
.	16ccJJ	.	.
.	16ffLL	4ff	.
.	16f	.	.
.	16a	.	.
.	16ccJJ	.	.
*	*v	*v	*
=47	=47	=47
!	!	!LO:HP:b=2
8B-] 8c] (8e-L]	16f 16anLL>	>
.	16ff	.
8B- 8d-	16f 16b-	.
.	16ffJJ	.
8A-X 8c	16f 16ccLL>	.
.	16ff	.
8G 8B-J)	16f 16dd-	.
.	16ffJJ	]]
=48	=48	=48
*	*^	*
4C 4F 4A-	16r	4ryy	.
.	16cLL	.	.
.	16f	.	.
.	16a-XJJ	.	.
8.r	16ccLL	4cc	.
.	16c	.	.
.	16f	.	.
16F 16A-	16a-JJ	.	.
!!LO:LB:g=original
=49	=49	=49	=49
4C 4G 4B-	16ccLL	4cc	.
.	16c	.	.
.	16g	.	.
.	16b-JJ	.	.
8.r	16ccLL	4cc	.
.	16c	.	.
.	16en	.	.
16En 16G	16gJJ	.	.
*	*v	*v	*
=50	=50	=50
16FLL	4c 4f 4a- 4cc	.
16c	.	<
16A-	.	.
16FJJ	.	.
16CLL	8.r	.
16A-	.	.
16F	.	.
16CJJ	16ff 16aa-	.
=51	=51	=51
16AA-LL	4ff 4aa-	.
16F	.	.
16C	.	.
16AA-JJ	.	.
16FFLL	8.r	.
16C	.	.
16AA-	.	.
16FFJJ	16ff 16aa-	.
=52	=52	=52
16CCLL	2ff (2aa-	sf
16FF	.	.
16AA-	.	.
16CJJ	.	.
16BBnLL	.	.
16C	.	.
16BB	.	.
16CJJ	.	.
=53	=53	=53
16BBnLL	8een 8gg)	.
16C	.	.
16GG	8r	.
16CJJ	.	.
16EEnLL	4r	.
16C	.	.
16GG	.	.
16CJJ	.	.
!!LO:LB:g=original
=54	=54	=54
16CCLL	4r	.
16EEn	.	.
16GG	.	.
16CJJ	.	.
16EELL	8.r	.
16GG	.	.
16C	.	.
16EnJJ	16gg 16bb-X	.
=55	=55	=55
16GGLL	4gg 4bb-	.
16C	.	.
16En	.	.
16GJJ	.	.
16CLL	8.r	.
16E	.	.
16G	.	.
16cJJ	16gg 16bb-	.
=56	=56	=56
16FLL	2gg (2bb-	sf
16A-	.	.
16c	.	.
16fJJ	.	.
16enLL	.	.
16f	.	.
16e	.	.
16fJJ	.	.
=57	=57	=57
16enLL	8ff 8aa-)	.
16f	.	.
16c	8r	.
16fJJ	.	.
16A-LL	4r	.
16f	.	.
16c	.	.
16fJJ	.	.
=58	=58	=58
16FLL	4r	f
16An	.	.
16c	.	.
16fJJ	.	.
*clefG2	*	*
16AnLL	8.r	.
16c	.	.
16f	.	.
16anJJ	16ccc 16eee-	.
!!LO:LB:g=original
=59	=59	=59
16cLL	4ccc 4eee-	.
16f	.	.
16an	.	.
16ccJJ	.	.
16fLL	8.r	.
16a	.	.
16cc	.	.
16ffJJ	16ccc 16eee-	.
=60	=60	=60
16anLL	[2ccc [2eee-	sf
16ff	.	.
16een	.	.
16ffJJ	.	.
16aLL	.	.
16ff	.	.
16a	.	.
16ffJJ	.	.
=61	=61	=61
16anLL	8ccc] (8eee-L]	>
16ff	.	.
16b-	8bb- 8ddd-	.
16ffJJ	.	.
16ccLL	8aa- 8ccc	.
16ff	.	.
16dd-	8gg 8bb-J)	.
16ffJJ	.	]
=62	=62	=62
16cLL	4ff 4aa-	.
16f	.	.
16a-X	.	.
16ccJJ	.	.
16bnLL	8.r	.
16cc	.	.
16b	.	.
16ccJJ	16ff 16aa- 16fff	.
=63	=63	=63
16cLL	4gg 4bb- 4ggg	.
16en	.	.
16g	.	.
16ccJJ	.	.
16cLL	8.r	.
16g	.	.
16b-	.	.
16ccJJ	16een 16gg 16eeen	.
!!LO:LB:g=original
=64	=64	=64
16F	16ff 16aa- 16fff	.
16f 16a-LL	16ccLL	<
16c 16cc	16ff	.
16f 16a-JJ	16aa-JJ	.
16c 16ccLL	16cccLL	.
16f 16a-	16ddd-	.
16c 16cc	16ccc	.
16f 16a-JJ	16bb-JJ	[
=65	=65	=65
16c 16ccLL	16aa-LL	>
16f 16a-	16bb-	.
16c 16cc	16aa-	.
16f 16a-JJ	16ggJJ	.
16c 16ccLL	16ffLL	.
16f 16a-	16gg	.
16c 16cc	16aa-	.
16f 16a-JJ	16ffJJ	]
=66	=66	=66
16F	16r	.
16f 16a-LL	16ccLL	<
16c 16cc	16ff	.
16f 16a-JJ	16aa-JJ	.
16c 16ccLL	16cccLL	.
16f 16a-	16ddd-	.
16c 16cc	16ccc	.
16f 16a-JJ	16bb-JJ	[
=67	=67	=67
16c 16ccLL	16aa-LL	>
16f 16a-	16bb-	.
16c 16cc	16aa-	.
16f 16a-JJ	16ggJJ	.
16c 16ccLL	16ffLL	.
16f 16a-	16gg	.
16c 16cc	16aa-	.
16f 16a-JJ	16ffJJ	]
*clefF4	*	*
=68	=68	=68
16GG	16r	.
*	*8va	*
16F 16GLL	16ffLL	<
16Dn 16Bn	16bbn	.
16F 16GJJ	16dddnJJ	.
16D 16BLL	16fffLL	.
16F 16G	16ggg	.
16D 16B	16fff	.
16F 16GJJ	16eee-JJ	[
!!LO:LB:g=original
=69	=69	=69
16Dn 16BnLL	16dddnLL	>
16F 16A-	16eee-	.
16D 16B	16ddd	.
16F 16A-JJ	16cccJJ	.
16D 16BLL	16bbnLL	.
16F 16G	16ccc	.
16D 16B	16ddd	.
16F 16GJJ	16bbJJ	]
=70	=70	=70
16GG	16r	.
16F 16GLL	16ffLL<	<
16Dn 16Bn	16bbn	.
16F 16GJJ	16dddnJJ	.
16D 16BLL	16fffLL	.
16F 16G	16ggg	.
16D 16B	16fff	.
16F 16GJJ	16eee-JJ	[
=71	=71	=71
16Dn 16BnLL	16dddnLL	>
16F 16A-	16eee-	.
16D 16B	16ddd	.
16F 16A-JJ	16cccJJ	.
16D 16BLL	16bbnLL	.
16F 16G	16ccc	.
16D 16B	16ddd	.
16F 16GJJ	16bbJJ	]
=72	=72	=72
16C	16r	.
*clefG2	*	*
16c 16e-LL	16ggLL	<
16G 16g	16ccc	.
16c 16e-JJ	16eee-JJ	.
16F 16gLL	16gggLL	.
16c 16e-	16aaa-	.
16G 16g	16ggg	.
16c 16e-JJ	16fffJJ	[
=73	=73	=73
16F 16gLL	16eee-LL	>
16c 16e-	16fff	.
16G 16g	16eee-	.
16c 16e-JJ	16dddnJJ	.
16G 16gLL	16cccLL	.
16c 16e-	16ddd	.
16G 16g	16eee-	.
16c 16e-JJ	16cccJJ	]
*clefF4	*	*
!!LO:LB:g=original
=74	=74	=74
8C	16r	.
.	16ggLL	<
*clefG2	*	*
16gLL	16ccc	.
16e-JJ	16eee-JJ	.
16ccLL	16gggLL	.
16g	16aaa-	.
16cc	16ggg	.
16gJJ	16fffJJ	.
=75	=75	=75
16ee-LL	16eee-LL	.
16cc	16fff	.
16ee-	16eee-	.
16ccJJ	16dddnJJ	.
16ggLL	16cccLL	.
16ee-	16ddd	.
16gg	16eee-	.
16ee-JJ	16cccJJ	.
=76	=76	=76
!	!	!LO:DY:b=2
4.ff (4.aa-	16r	sfp
.	(16ddd-XLL	.
.	16eee-	.
.	16ddd-JJ	.
.	16eee-LL	.
.	16ddd-	.
8ee- 8gg	16ccc	.
.	16ddd-JJ)	.
=77	=77	=77
4ddn 4ff	16r	.
.	(16bbnLL	.
.	16ccc	.
.	16bbJJ)	.
4ee- 4gg)	16r	.
.	(16cccLL	.
.	16dddn	.
.	16cccJJ)	.
=78	=78	=78
4.ffz (4.aa-z	16r	.
.	(16ddd-XLL	.
.	16eee-	.
.	16ddd-JJ	.
.	16eee-LL	.
.	16ddd-	.
8ee- 8gg	16ccc	.
.	16ddd-JJ)	.
!!LO:LB:g=original
=79	=79	=79
4ddn 4ff	16r	.
.	(16bbnLL	.
.	16ccc	.
.	16bbJJ)	.
4ee- 4gg)	16r	.
.	(16cccLL	.
.	16ddd-	.
.	16cccJJ)	.
=80	=80	=80
!	!	!LO:DY:b=2
4.ff (>4.aa-	16r	sfp
.	16ddd-XLL	.
.	16eee-	.
.	16ddd-JJ	.
.	16eee-LL	.
.	16ddd-	.
8ee- 8gg	16ccc	.
.	16dddnJJ	.
*	*X8va	*
=81	=81	=81
4ddn 4ff	16r	<
.	16bbnLL	.
.	16ccc	.
.	16bbJJ	.
4cc 4ee-	16r	.
.	16aa-LL	.
.	16bb-	.
.	16aa-JJ	.
=82	=82	=82
4bn 4ddn	16r	.
.	16ggLL	.
.	16aa-	.
.	16ggJJ	.
4an 4cc	16r	.
.	16ff#LL	.
.	16gg	.
.	16ff#JJ	.
=83	=83	=83
4a-X 4cc	16r	.
.	16ffnLL	.
.	16gg	.
.	16ffJJ	.
4g 4cc)	16r	.
.	16ee-LL	.
.	16ff	.
.	16ee-JJ	.
=84	=84	=84
*^	*	*
(4f#	2f#	16r	>
.	.	16ee-LL	.
.	.	16ff	.
.	.	16ee-JJ	.
4an)	.	16r	.
.	.	16ddnLL	.
.	.	16ee-	.
.	.	16ddJJ	.
!!LO:LB:g=original
=85	=85	=85	=85
(4e-	2G 2g	16r	.
.	.	16ccLL	.
.	.	16ddn	.
.	.	16ccJJ	.
4dn)	.	16r	.
.	.	16bnLL	.
.	.	16cc	.
.	.	16bJJ	.
*v	*v	*	*
*clefF4	*	*
=86	=86	=86
!	!	!LO:DY:b=2
4.F 4.A- (4.d-X	16r	sfp
.	16a-LL	.
.	16aa-	.
.	16a-JJ	.
.	16aa-LL	.
.	16a-	.
8E- 8G 8c	16aa-	.
.	16a-JJ	.
=87	=87	=87
4Dn 4F 4Bn	16r	.
.	16a-LL	.
.	16aa-	.
.	16ggJJ	.
4E- 4G 4c)	16ffLL	.
.	16ee-	.
.	16ddn	.
.	16ccJJ	.
=88	=88	=88
4.F 4.A- (4.d-X	16r	sfp
*	*8va	*
.	16aa-LL	.
.	16aaa-	.
.	16aa-JJ	.
.	16aaa-LL	.
.	16aa-	.
8E- 8G 8c	16aaa-	.
.	16aa-JJ	.
=89	=89	=89
4Dn 4F 4Bn	16r	.
.	16aa-LL	.
.	16aaa-	<
.	16gggJJ	.
4E- 4G 4c)	16fffLL	.
.	16eee-	.
.	16dddn	.
.	16cccJJ	.
*	*X8va	*
!!LO:LB:g=original
=90	=90	=90
4.F 4.A- (>4.d-X	16r	sfp
.	16a-LL	.
.	16aa-	.
.	16a-JJ	.
.	16aa-LL	.
.	16a-	.
8E- 8G 8c	16aa-	.
.	16a-JJ	.
=91	=91	=91
4Dn 4F 4Bn	16r	.
.	16aa-LL	.
.	16a-	.
.	16aa-JJ	.
4C 4E- 4A-	16r	.
*	*8va	*
.	16aaa-LL	.
.	16aa-	.
.	16aaa-JJ	.
=92	=92	=92
4BBn 4Dn 4G	16r	.
.	16gggLL	<
.	16gg	.
.	16gggJJ	.
4AAn\ 4C\ 4E-\ 4F#\	16r	.
.	16fff#LL	.
.	16ff#	.
.	16fff#JJ	.
=93	=93	=93
4BBn 4Dn 4F-	16r	.
.	16fffnLL	.
.	16ffn	.
.	16fffJJ	.
4C 4E-)	16r	.
.	16eee-LL	.
.	16ee- 16gg	.
.	16eee-JJ	.
=94	=94	=94
*^	*	*
(4E-	2FF# 2AAn	16r	.
.	.	16eee-LL	>
.	.	16ee- 16aan	.
.	.	16eee-JJ	.
4Dn	.	16r	.
.	.	16dddnLL	.
.	.	16ddn 16aa	.
.	.	16dddJJ	.
*	*	*X8va	*
!!LO:LB:g=original
=95	=95	=95	=95
4C	2GG	16r	.
.	.	16cccLL	.
.	.	16cc 16ee-	.
.	.	16cccJJ	.
4BBn)	.	16r	.
.	.	16bbnLL	.
.	.	16bn 16ddn	.
.	.	16bbJJ	.
*v	*v	*	*
=96	=96	=96
8CC 8EE- 8GG 8C	16cc 16ee- 16gg 16ccc	f
.	16gLL	.
8r	16cc	.
.	16ee-JJ	.
16r	16ggLL	.
16GLL	16aa-	.
16c	16gg	.
16e-JJ	16ffJJ	.
=97	=97	=97
16gLL	16ee-LL	.
16a-	16ff	.
16g	16ee-	.
16fJJ	16ddnJJ	.
16e-LL	16ccLL<	.
16dn	16b-X	.
16c	16a-	.
16B-JJ	16gJJ	.
=98	=98	=98
16A-LL	16fLL	.
16G	16e-	.
16F	16dn	.
16E-JJ	16cJJ	.
16DnLL	8BnL	.
16E-	.	.
16F	8G 8B 8d 8gJ	sf
16E-JJ	.	.
=99	=99	=99
16DnLL	8G 8Bn 8f 8gL	.
16C	.	.
16BBn	8G 8B 8f 8g	.
16AA-JJ	.	.
16GGLL	8G 8B 8f 8g	.
16FF	.	.
16EE-	8G 8B 8f 8gJ	.
16DDnJJ	.	.
!!LO:LB:g=original
=100	=100	=100
16CC 16EE- 16GG 16C	16G 16c 16e- 16g	f
*	*8va	*
16r	16ggLL	.
8r	16ccc	.
.	16eee-JJ	.
*clefG2	*	*
16r	16gggLL	.
16gLL	16aaa-	.
16cc	16ggg	.
16ee-JJ	16fffJJ	.
=101	=101	=101
16ggLL	16eee-LL	.
16aa-	16fff	.
16gg	16eee-	.
16ffJJ	16dddnJJ	.
16ee-LL	16cccLL<	.
16ddn	16bb-X	.
16cc	16aa-	.
16b-JJ	16ggJJ	.
*	*X8va	*
=102	=102	=102
16a-LL	16ffLL	.
16g	16ee-	.
16f	16ddn	.
16e-JJ	16ccJJ	.
16dnLL	8bnL	.
16e-	.	.
16f	8g 8b 8dd 8ggJ	sf
16e-JJ	.	.
*clefF4	*	*
=103	=103	=103
16dnLL	8g 8bn 8ff 8ggL	.
16c	.	.
16Bn	8g 8b 8ff 8gg	.
16A-JJ	.	.
16GLL	8g 8b 8ff 8gg	.
16F	.	.
16E-	8g 8b 8ff 8ggJ	.
16DnJJ	.	.
=104	=104	=104
16CLL	4g 4cc 4ee- 4gg	.
16Dn	.	.
16E-	.	.
16FJJ	.	.
16GLL	8r	.
16An	.	.
16Bn	8gg 8ccc 8eee- 8ggg	sf
16cJJ	.	.
!!LO:LB:g=original
=105	=105	=105
16dnLL	8gg 8bbn 8fff 8gggL	.
16c	.	.
16Bn	8gg 8bb 8fff 8ggg	.
16A-XJJ	.	.
16GLL	8gg 8bb 8fff 8ggg	.
16F	.	.
16E-	8gg 8bb 8fff 8gggJ	.
16DnJJ	.	.
=106	=106	=106
16CLL	4gg 4ccc 4eee- 4ggg	.
16Dn	.	.
16E-	.	.
16FJJ	.	.
16GLL	8r	.
16An	.	.
!	!	!LO:DY:rj
16Bn	8g 8cc 8ee- 8gg	sf
16cJJ	.	.
=107	=107	=107
16dnLL	8g 8bn 8ff 8ggL	.
16c	.	.
16Bn	8g 8b 8ff 8gg	.
16A-XJJ	.	.
16GLL	8g 8b 8ff 8gg	.
16F	.	.
16E-	8g 8b 8ff 8ggJ	.
16DnJJ	.	.
=108	=108	=108
16CLL	4g 4cc 4ee- 4gg	.
16Dn	.	.
16E-	.	.
16FJJ	.	.
16GLL	8r	.
16An	.	.
16Bn	8cc 8ee- 8gg 8ccc	sf
16cJJ	.	.
=109	=109	=109
16B-XLL	8cc 8een 8gg 8cccL	.
16A-X	.	.
16G	8cc 8ee 8gg 8ccc	.
16FJJ	.	.
16EnLL<	8cc 8ee 8gg 8ccc	.
16D-X	.	.
16C	8cc 8ee 8gg 8cccJ	.
16BB-JJ	.	.
!!LO:LB:g=original
=110	=110	=110
16AA-LL	4cc 4ff 4aa- 4ccc	.
16BB-	.	.
16C	.	.
16DnJJ	.	.
16EnLL	8r	.
16F	.	.
16G	8c 8f 8a- 8cc	sf
16A-JJ	.	.
=111	=111	=111
16GLL	8c 8en 8b- 8ccL	.
16F	.	.
16En	8c 8e 8b- 8cc	.
16D-XJJ	.	.
16CLL	8c 8e 8b- 8cc	.
16BB-	.	.
16AA-	8c 8e 8b- 8ccJ	.
16GGJJ	.	.
=112	=112	=112
*ped	*	*
8GGG- 8GG-	16c 16e-X 16an 16cc	ff
.	16AnLL	.
8r	16c	.
.	16e-JJ	.
4r	16g-LL	.
.	16a	.
.	16cc	.
.	16ee-JJ	.
=113	=113	=113
2r	16gg-LL	.
.	16aan	.
.	16ccc	.
.	16eee-JJ	.
.	16ggg-LL	.
.	16eee-	.
.	16ccc	.
.	16aaJJ	.
=114	=114	=114
2r	16gg-LL	.
.	16ee-	.
.	16cc	.
.	16anJJ	.
.	16g-LL	.
.	16e-	.
.	16c	.
.	16AnJJ	.
*	*clefF4	*
!!LO:LB:g=original
=115	=115	=115
4r	16G-LL	.
.	16E-	.
.	16C	.
.	16AAnJJ	.
16r	16GG-\	.
16EE-LL	16r	.
16CC	8r	.
16AAAnJJ	.	.
=116	=116	=116
16GGG-LL	2r	>
16AAAn	.	.
16CC	.	.
16EE-JJ	.	.
16GGG-LL	.	.
16AAA	.	.
16CC	.	.
16EE-JJ	.	.
=117	=117	=117
16GGG-LL	2r	.
16AAAn	.	.
16CC	.	.
16EE-JJ	.	.
16GGG-LL	.	.
16AAA	.	.
16CC	.	.
*Xped	*	*
16EE-JJ	.	.
*	*clefG2	*
=118!|:	=118!|:	=118!|:
*>B	*>B	*>B
4FFF	16r	.
.	16AnLL	p
.	16c	.
.	16e-JJ	.
4r	16g-LL	.
.	16a-X	.
.	16g-	.
.	16fJJ	.
=119	=119	=119
4r	16e-LL	.
.	16f	.
.	16e-	.
.	16d-JJ	.
8.r	16cLL	.
.	16d-	.
.	16e-	.
16FF	16cJJ	.
!!LO:LB:g=original
=120	=120	=120
4FFF	16r	.
.	16AnLL	.
.	16c	.
.	16e-JJ	.
4r	16g-LL	.
.	16a-X	.
.	16g-	.
.	16fJJ	.
=121	=121	=121
4r	16e-LL	.
.	16f	.
.	16e-	.
.	16d-JJ	.
8.r	16cLL	.
.	16d-	.
.	16e-	.
16FF	16cJJ	.
=122	=122	=122
4FFF	16r	.
.	16AnLL	<
.	16c	.
.	16e-JJ	.
8r	16g-LL	.
.	16a-X	.
16AnLL	16g-	.
16B-JJ	16fJJ	.
=123	=123	=123
16cLL	8e-L	sf
16d-	.	.
16c	16e-L	.
16B-JJ	16fJJ	.
8AnL	16g-LL	.
.	16a-	.
16AL	16g-	.
16B-JJ	16fJJ	.
=124	=124	=124
16cLL	8e-L	sf
16d-	.	.
16c	16e-L	.
16B-JJ	16fJJ	.
8AnL	16g-LL	.
.	16a-	.
16AL	16g-	.
16B-JJ	16fJJ	.
!!LO:LB:g=original
=125	=125	=125
16cLL	8e-	.
16d-	.	.
16c	8g- (8gg-L	.
16B-JJ	.	.
16AnLL	8f 8ff	>
16G-	.	.
16F	8an 8aanJ)	.
16E-JJ	.	.
=126	=126	=126
*^	*	*
16D-LL	[2D-	16b- 16bb-	.
16F	.	16fLL<	.
16B-	.	16b-	.
16FJJ	.	16dd-JJ	.
16B-LL	.	16ffLL	.
16F	.	16gg-	.
16B-	.	16ff	.
16FJJ	.	16ee-JJ	.
=127	=127	=127	=127
16B-LL	2D-]	16dd-LL	.
16F	.	16ee-	.
16B-	.	16dd-	.
16FJJ	.	16ccJJ	.
16B-LL	.	16b-LL	.
16F	.	16cc	.
16B-	.	16dd-	.
16FJJ	.	16b-JJ	.
=128	=128	=128	=128
16D-LL	[2D-	16r	.
16F	.	16fLL<	.
16B-	.	16b-	.
16FJJ	.	16dd-JJ	.
16B-LL	.	16ffLL	.
16F	.	16gg-	.
16B-	.	16ff	.
16FJJ	.	16ee-JJ	.
=129	=129	=129	=129
16B-LL	2D-]	16dd-LL	.
16F	.	16ee-	.
16B-	.	16dd-	.
16FJJ	.	16ccJJ	.
16B-LL	.	16b-LL	.
16F	.	16cc	.
16B-	.	16dd-	.
16FJJ	.	16b-JJ	.
!!LO:LB:g=original
=130	=130	=130	=130
!	!	!	!LO:HP:a
16E-LL	[2E-	16r	<
16G-	.	16g-LL	.
16c-	.	16cc-	.
16G-JJ	.	16ee-JJ	.
16c-LL	.	16gg-LL	.
16G-	.	16aa-	.
16c-	.	16gg-	.
16G-JJ	.	16ffJJ	.
=131	=131	=131	=131
16c-LL	2E-]	16ee-LL	.
16G-	.	16ff	.
16c-	.	16ee-	.
16G-JJ	.	16dd-JJ	.
16c-LL	.	16cc-LL	.
16G-	.	16dd-	.
16c-	.	16ee-	.
16G-JJ	.	16cc-JJ	.
=132	=132	=132	=132
16FLL	2F	16b-LL	.
16B-	.	16ccn	.
16d-	.	16b-	.
16B-JJ	.	16anJJ	[
!	!	!	!LO:HP:a
16d-LL	.	16b-LL	>
16B-	.	16cc	.
16d-	.	16dd-	.
16B-JJ	.	16b-JJ	.
=133	=133	=133	=133
16E-LL	2E-	16anLL	.
16F	.	16b-	.
16c	.	16a	.
16FJJ	.	16gnJJ	.
16cLL	.	16aLL	.
16F	.	16b-	.
16c	.	16cc	.
16FJJ	.	16aJJ	]]
=134	=134	=134	=134
16D-LL	4ryy	8b-L	.
16fJJ	.	.	.
8r	.	16b-L	.
.	.	16dd-JJ	.
*clefG2	*	*	*
16B-LL	(4B-	16ffLL	<
16d-	.	16gg-	.
16f	.	16ff	.
16d-JJ	.	16ee-JJ	.
!!LO:LB:g=original
=135	=135	=135	=135
*	*	*^	*
16AnLL	4An^	4rccc	16dd-LL	.
16d-	.	.	16ee-	.
16f	.	.	16dd-	.
16d-JJ	.	.	16ccJJ	.
16B-LL	4B-)	(4bb-	16b-LL	.
16d-	.	.	16cc	.
16f	.	.	16dd-	.
16d-JJ	.	.	16b-JJ	.
*v	*v	*	*	*
*clefF4	*	*	*
=136	=136	=136	=136
*^	*	*	*
16D-LL	4ryy	4aan^	8r	.
16fJJ	.	.	.	.
8r	.	.	16b-LL	<
.	.	.	16dd-JJ	.
*v	*v	*	*	*
*clefG2	*	*	*
*^	*	*	*
16B-LL	(4B-	4bb-)	16ffLL	.
16d-	.	.	16gg-	.
16f	.	.	16ff	.
16d-JJ	.	.	16ee-JJ	.
=137	=137	=137	=137	=137
16AnLL	4An	4rccc	16dd-LL	.
16d-	.	.	16ee-	.
16f	.	.	16dd-	.
16d-JJ	.	.	16ccJJ	.
16B-LL	4B-)	(4bb-	16b-LL	.
16d-	.	.	16cc	.
16f	.	.	16dd-	.
16d-JJ	.	.	16b-JJ	[[
*v	*v	*	*	*
*	*v	*v	*
*clefF4	*	*
=138	=138	=138
16E-	16cc- 16ccc-)	f
*clefG2	*	*
*	*8va	*
16g- 16cc-LL	16gg-LL	.
16e-	16ccc-	.
16g- 16cc-JJ	16eee-JJ	.
16e-LL	16ggg-LL	.
16g- 16cc-	16aaa-	.
16e-	16ggg-	.
16g- 16cc-JJ	16fffJJ	.
=139	=139	=139
16e-LL	16eee-LL	.
16g- 16cc-	16fff	.
16e-	16eee-	.
16g- 16cc-JJ	16ddd-JJ	.
16e-LL	16ccc-LL	.
16g- 16cc-	16ddd-	.
16e-	16ccc-	.
16g- 16cc-JJ	16bb-JJ	.
!!LO:LB:g=original
=140	=140	=140
16fLL<	16aanLL	.
16an 16cc 16ee-	16cccn	.
16f	16eee-	.
16a 16cc 16ee-JJ	16ddd-JJ	.
16fLL<	16cccLL	.
16a 16cc 16ee-	16ddd-	.
16f	16ccc	.
16a 16cc 16ee-JJ	16bb-JJ	.
*	*X8va	*
=141	=141	=141
16fLL	16aanLL	.
16an	16bb-	.
16f	16aa	.
16aJJ	16gg-JJ	.
*clefF4	*	*
16FLL	16ffLL	.
16f	16ee-	.
16F	16dd-	.
16fJJ	16ccJJ	.
=142	=142	=142
8BB-	8b-`	.
*clefG2	*	*
*	*	*^
!	!	!	!LO:DY:b=2
16B- 16d-LL	4ff	sfp	p
*	*	*v	*v
16fJJ	.	.
16B- 16d-LL	.	.
16f	.	.
16B- 16d-	8ff`	.
16fJJ	.	.
=143	=143	=143
16B- 16d-LL	8ff`	.
16f	.	.
16B- 16d-	4gg-	sfp
16enJJ	.	.
16B- 16d-LL	.	.
16e	.	.
16B- 16d-	8gg-`	.
16eJJ	.	.
=144	=144	=144
16An 16cLL	8gg-`	.
16en	.	.
16A 16c	4ff	sfp
16fJJ	.	.
16A 16cLL	.	.
16f	.	.
16A 16c	8ff`	.
16fJJ	.	.
!!LO:LB:g=original
=145	=145	=145
16An 16cLL	8ff`L	.
16f	.	.
16A 16c	8cc`	.
16fJJ	.	.
16A 16cLL	8dd-`	.
16f	.	.
16A 16c	8ee-`J	.
16fJJ	.	.
=146	=146	=146
16B- 16d-LL	8dd-`	.
16f	.	.
*	*	*^
!	!	!	!LO:DY:b=2
16B- 16d-	4ff 4fff	sf	f
*	*	*v	*v
16fJJ	.	.
16B- 16d-LL	.	.
16f	.	.
16B- 16d-	8ff` 8fff`	.
16fJJ	.	.
=147	=147	=147
16B- 16d-LL	8ff` 8fff`	.
16f	.	.
16B- 16d-	4gg- 4ggg-	sf
16enJJ	.	.
16B- 16d-LL	.	.
16e	.	.
16B- 16d-	8gg-` 8ggg-`	.
16eJJ	.	.
=148	=148	=148
16An 16cLL	8gg-` 8ggg-`	.
16en	.	.
16A 16c	4ff 4fff	sf
16fJJ	.	.
16A 16cLL	.	.
16f	.	.
16A 16c	8ff` 8fff`	.
16fJJ	.	.
=149	=149	=149
16An 16cLL	8ff` 8fff`L	.
16f	.	.
16A 16c	8cc` 8ccc`	.
16fJJ	.	.
16A 16cLL	8dd-` 8ddd-`	.
16f	.	.
16A 16c	8ee-` 8eee-`J	.
16fJJ	.	.
!!LO:LB:g=original
=150	=150	=150
16d-LL	8dd- 8ddd-	.
16fJJ	.	.
*clefF4	*	*
*	*	*^
!	!	!	!LO:DY:b=2
16En 16GLL	4cc	sfp	p
*	*	*v	*v
16cJJ	.	.
16E 16GLL	.	.
16c	.	.
16E 16G	8cc`	.
16cJJ	.	.
=151	=151	=151
16F 16A-LL	8cc`	.
16c	.	.
16F 16A-	4bn	sfp
16dnJJ	.	.
16F 16A-LL	.	.
16d	.	.
16F 16A-	8b`	.
16dJJ	.	.
=152	=152	=152
16En 16GLL	8bn`	.
16dn	.	.
16E 16G	4cc	sfp
16cJJ	.	.
16E 16GLL	.	.
16c	.	.
16E 16G	8cc`	.
16cJJ	.	.
=153	=153	=153
16En 16GLL	8cc`L	.
16c	.	.
16E 16G	8g`	.
16cJJ	.	.
16E 16GLL	8a-`	.
16c	.	.
16E 16G	8b-X`J	.
16cJJ	.	.
=154	=154	=154
16F 16A-LL	8a-`	.
16c	.	.
!	!	!LO:DY:b=2
16F 16A-	4ccz 4cccz	f
16cJJ	.	.
16F 16A-LL	.	.
16c	.	.
16F 16A-	8cc` 8ccc`	.
16cJJ	.	.
!!LO:LB:g=original
=155	=155	=155
16F 16A-LL	8cc` 8ccc`	.
16c	.	.
16F 16A-	4bnz 4bbnz	.
16dnJJ	.	.
16F 16A-LL	.	.
16d	.	.
16F 16A-	8b` 8bb`	.
16dJJ	.	.
=156	=156	=156
16En 16GLL	8bn` 8bbn`	.
16dn	.	.
16E 16G	4ccz 4cccz	.
16cJJ	.	.
16E 16GLL	.	.
16c	.	.
16E 16G	8cc` 8ccc`	.
16cJJ	.	.
=157	=157	=157
16En 16GLL	8cc` 8ccc`L	.
16c	.	.
16E 16G	8g` 8gg`	.
16cJJ	.	.
16E 16GLL	8a-` 8aa-`	.
16c	.	.
16E 16G	8b-X` 8bb-X`J	.
16cJJ	.	.
=158	=158	=158
!	!	!LO:DY:t=pi&ugrave; %s
4FF 4AA- 4C 4F	16a- 16aa-	f
.	16cLL	.
.	16f	.
.	16a-JJ	.
16r	16ccLL	.
16CLL	16dd-	.
16F	16cc	.
16A-JJ	16b-JJ	.
=159	=159	=159
16cLL	16a-LL	.
16d-	16b-	.
16c	16a-	.
16B-JJ	16gJJ	.
16A-LL	16fLL	.
16B-	16g	.
16c	16a-	.
16A-JJ	16fJJ	.
!!LO:LB:g=original
=160	=160	=160
16B-LL	16g-LL	.
16c	16d-	.
16B-	16g-	.
16A-JJ	16b-JJ	.
16G-LL	16dd-LL	.
16D-	16ee-	.
16G-	16dd-	.
16B-JJ	16ccJJ	.
=161	=161	=161
16d-LL	16b-LL	.
16e-	16cc	.
16d-	16b-	.
16cJJ	16a-JJ	.
16B-LL	16g-LL	.
16c	16a-	.
16d-	16b-	.
16B-JJ	16g-JJ	.
=162	=162	=162
16cLL	16anLL	.
16d-	16e-	.
16c	16a	.
16B-JJ	16ccJJ	.
16AnLL	16ee-LL	.
16E-	16ff	.
16A	16ee-	.
16cJJ	16dd-JJ	.
=163	=163	=163
16e-LL	16ccLL	.
16f	16dd-	.
16e-	16cc	.
16d-JJ	16b-JJ	.
16cLL	16anLL<	.
16d-	16b-	.
16e-	16cc	.
16cJJ	16aJJ	.
=164	=164	=164
!	!	!LO:DY:rj
16d-LL	16b-LL<	ff
16F	16f	.
16B-	16b-	.
16d-JJ	16dd-JJ	.
16fLL	16ffLL	.
16g-	16gg-	.
16f	16ff	.
16e-JJ	16ee-JJ	.
!!LO:LB:g=original
=165	=165	=165
16d-LL	16dd-LL>	.
16c	16cc	.
16B-	16b-	.
16A-XJJ	16a-XJJ	.
16G-LL	16g-LL	.
16F	16f	.
16E-	16e-	.
16D-JJ	16d-JJ	.
*	*clefF4	*
=166	=166	=166
16CLL	16cLL	.
16BB-	16B-	.
16AA-	16A-	.
16GG-JJ	16G-JJ	.
16FFLL	16FLL	.
16EE-	16E-	.
16DD-	16D-	.
16CCJJ	16CJJ	.
=167	=167	=167
16BBB-LL	16BB-LL	.
16CC	16C	.
16DD-	16D-	.
16CCJJ	16CJJ	.
8BBB-L	8BB-L<	.
8BBBnJ	8BBn 8Dn 8F 8A-J	.
=168	=168	=168
8CC'L	16C 16En 16GLL	.
.	16C 16cJJ	.
8EEn'	16r	.
.	16C 16c	.
8CC'	16r	.
.	16C 16cLL	.
8FF'J	16r	.
.	16C 16cJJ	.
=169	=169	=169
8CC'L	16r	.
.	16C 16cLL	.
8GG'	16r	.
.	16C 16c	.
8CC'	16r	.
.	16C 16c	.
8AA-'J	16r	.
.	16C 16cJJ	.
*	*clefG2	*
!!LO:LB:g=original
=170	=170	=170
8CC'L	16r	.
.	16c 16ccLL	.
8BB-'	16r	.
.	16c 16cc	.
8CC'	16r	.
.	16c 16cc	.
8AA-'J	16r	.
.	16c 16ccJJ	.
=171	=171	=171
8CC'L	16r	.
.	16c 16ccLL	.
8GG'	16r	.
.	16c 16cc	.
8CC'	16r	.
.	16c 16cc	.
8FF'J	16r	.
.	16c 16ccJJ	.
=172	=172	=172
8CC'L	16r	.
.	16cc 16cccLL	.
8EEn'	16r	.
.	16cc 16ccc	.
8CC'	16r	.
.	16cc 16ccc	.
8FF'J	16r	.
.	16cc 16cccJJ	.
=173	=173	=173
8CC'L	16r	.
.	16cc 16cccLL	.
8GG'	16r	.
.	16cc 16ccc	.
8CC'	16r	.
.	16cc 16ccc	.
8AA-'J	16r	.
.	16cc 16cccJJ	.
=174	=174	=174
*	*8va	*
8CC'L	16r	.
.	16ccc 16ccccLL	.
8AAn'	16r	.
.	16ccc 16cccc	.
8CC'	16r	.
.	16ccc 16cccc	.
8BB-'J	16r	.
.	16ccc 16ccccJJ	.
=175	=175	=175
8CC'L	16r	.
.	16ccc 16ccccLL	.
8BBn'	16r	.
.	16ccc 16cccc	.
8CC'	16r	.
.	16ccc 16cccc	.
8C'J	16r	.
.	16ccc 16ccccJJ	.
*	*X8va	*
*	*clefF4	*
!!LO:LB:g=original
=176	=176	=176
*ped	*	*
8BBB- 8DD- 8GG- 8BB-	16r	.
.	16D-LL	ff
8r	16G-	.
.	16B-JJ	.
16r	8d-	.
16BB-LL	.	.
16D-	8r	.
16G-JJ	.	.
*	*clefG2	*
=177	=177	=177
8B-	16r	.
.	16d-LL	.
8r	16g-	.
.	16b-JJ	.
*clefG2	*	*
16r	8dd-	.
16B-LL	.	.
16d-	8r	.
16g-JJ	.	.
=178	=178	=178
8b-	16r	.
.	16dd-LL	.
8r	16gg-	.
.	16bb-JJ	.
4r	8ddd-	.
*Xped	*	*
.	8r	.
=179	=179	=179
2r	2r	.
*clefF4	*clefF4	*
=180	=180	=180
*ped	*	*
8CC 8GGn 8BB- 8C	16r	.
.	16EnLL	ff
8r	16Gn	.
.	16B-JJ	.
*	*clefG2	*
16r	8en	.
16CLL	.	.
16G	8r	.
16B-JJ	.	.
=181	=181	=181
8c	16r	.
.	16enLL	.
8r	16g	.
.	16b-JJ	.
*clefG2	*	*
16r	8een	.
16cLL	.	.
16g	8r	.
16b-JJ	.	.
!!LO:LB:g=original
=182	=182	=182
8cc	16r	.
.	16eenLL	.
8r	16gg	.
.	16bb-JJ	.
4r	8eeen	.
*Xped	*	*
.	8r	.
=183	=183	=183
2r	2r	.
*clefF4	*	*
=184	=184	=184
*ped	*	*
!	!	!LO:DY:t=%s e legato:a
12DD-L	4r	p
12D-	.	.
12EnJ	.	.
4r	16GLL	.
.	16B-	.
.	16d-	.
.	16enJJ	.
=185	=185	=185
2r	8g	.
.	8r	.
*Xped	*	*
.	4r	.
=186	=186	=186
*ped	*	*
12EEnL	4r	.
12En	.	.
12GJ	.	.
4r	16B-LL	>
.	16d-	.
.	16en	.
.	16gJJ	.
=187	=187	=187
2r	8b-	.
.	8r	.
*Xped	*	*
.	4r	.
=188	=188	=188
*ped	*	*
12GGL	4r	.
12G	.	.
12B-J	.	.
4r	16d-LL	.
.	16en	.
.	16g	.
.	16b-JJ	.
!!LO:LB:g=original
=189	=189	=189
2r	8dd-	.
.	8r	.
*Xped	*	*
.	4r	.
=190	=190	=190
*ped	*	*
12BB-L	4r	.
12B-	.	.
12d-J	.	.
4r	16enLL	.
.	16g	.
.	16b-	.
.	16dd-JJ	.
=191	=191	=191
2r	8een	pp
.	8r	.
*Xped	*	*
.	4r	.
=192	=192	=192
*ped	*	*
!	!	!LO:DY:t=sempre %s
8D-L	2r	pp
8En	.	.
8G	.	.
8B-J	.	.
=193	=193	=193
8d-	8r	.
8r	8enL	.
4r	8g	.
.	8b-J	.
=194	=194	=194
2r	8dd-L	.
.	8een	.
.	8gg	.
.	8bb-J	.
=195	=195	=195
2r	8ddd-L	.
.	8eeen	.
.	8ggg	.
.	8bbb-J	.
!!LO:LB:g=original
=196	=196	=196
2r	8gggL	.
.	8eeen	.
.	8ddd-	.
.	8bb-J	.
=197	=197	=197
2r	8ggL	.
.	8een	.
.	8dd-	.
.	8b-J	.
=198	=198	=198
2r	8gL	.
.	8en	.
.	8d-	.
.	8B-J	.
*	*clefF4	*
=199	=199	=199
2r	8GL	.
.	8En	.
.	8D-	.
.	8BB-J	.
=200	=200	=200
2r	2GG	.
=201	=201	=201
2EEn	2r	.
=202	=202	=202
2DD-	2r	.
=203	=203	=203
2BBB-	2r	.
=204	=204	=204
[2GGG	2r	.
=205	=205	=205
2GGG]	2r	.
*Xped	*	*
!!LO:LB:g=original
=206	=206	=206
*ped	*	*
[2CC	4.GG 4.BB- 4.C 4.En	pp
.	8r	.
*	*clefG2	*
=207	=207	=207
2CC_	2r	.
=208	=208	=208
2CC_	4.G 4.B- 4.c 4.en	.
.	8r	.
=209	=209	=209
2CC_	4.g 4.b- 4.cc 4.een	.
.	8r	.
=210	=210	=210
2CC_	4.gg 4.bb- 4.ccc 4.eeen	.
.	8r	.
*	*clefF4	*
=211	=211	=211
4CC]	4.GG 4.BB- 4.C 4.En	.
8.CCL	.	.
.	8r	.
16CCJk	.	.
*Xped	*	*
=212	=212	=212
4FFF 4FF	16r	pp
.	16CLL	.
.	16F	.
.	16A-JJ	.
4r	16cLL	.
.	16d-	.
.	16c	.
.	16B-JJ	.
=213	=213	=213
2r	16A-LL	.
.	16B-	.
.	16A-	.
.	16GJJ	.
.	16FLL	.
.	16G	.
.	16A-	.
.	16FJJ	.
!!LO:LB:g=original
=214	=214	=214
4FFF 4FF	16r	.
.	16CLL	.
.	16F	.
.	16A-JJ	.
8.r	16cLL	.
.	16d-	.
.	16c	.
*clefG2	*	*
16a- 16cc	16B-JJ	.
=215	=215	=215
4a-/z (>4cc/z	16A-LL	.
.	16B-	.
.	16A-	.
.	16GJJ	.
8f 8a-)	16FLL	.
.	16G	.
8r	16A-	.
.	16FJJ	.
*clefF4	*	*
=216	=216	=216
4BBB- 4BB-	16r	.
.	16D-LL	.
.	16G-	.
.	16B-JJ	.
8.r	16d-LL	.
.	16e-	.
.	16d-	.
*clefG2	*	*
16b- 16dd-	16cJJ	.
=217	=217	=217
2b- 2dd-	16B-LLz	.
.	16c	.
.	16B-	.
.	16A-JJ	.
.	16G-LL	.
.	16A-	.
.	16G-	.
.	16FJJ	.
=218	=218	=218
!	!	!LO:DY:b=2
8b- 8cc	16EnLL	p
.	16F	.
*clefF4	*	*
8CC 8C	16Gn	.
.	16EJJ	.
8r	16FLL	.
.	16G	.
8DD- 8D-	16A-	.
.	16FJJ	.
!!LO:LB:g=original
=219	=219	=219
8r	16GLL	.
.	16A-	.
8BBB- 8BB-	16B-	.
.	16GJJ	.
8r	16EnLL	.
.	16F	.
8CC 8C	16G	.
.	16EJJ	.
=220	=220	=220
16FFF 16FF	4F	.
16CLL	.	.
16F	.	.
16A-JJ	.	.
16cLL	8r	.
16d-	.	.
*	*clefG2	*
16c	(8en	<
16B-JJ	.	.
=221	=221	=221
16A-LL	8fL)	.
16B-	.	.
16A-	8g`	.
16GJJ	.	.
16FLL	8a-`	.
16G	.	.
16A-	8f`J	.
16FJJ	.	.
=222	=222	=222
16A-LL	4r	.
16C	.	.
16F	.	.
16A-JJ	.	.
16cLL	8r	.
16d-	.	.
16c	8en\ ((8een\	.
16B-JJ	.	.
=223	=223	=223
16A-LL	8f 8ffL))	.
16B-	.	.
16A-	8g` 8gg`	.
16GJJ	.	.
16FLL	8a-` 8aa-`	.
16G	.	.
16A-	8f` 8ff`J	.
16FJJ	.	.
!!LO:LB:g=original
=224	=224	=224
16B-LL	4r	.
16D-	.	.
16G-	.	.
16B-JJ	.	.
16d-LL	8r	.
16e-	.	.
16d-	8f (8ff	.
16cJJ	.	.
=225	=225	=225
16B-LL	8g- 8gg-L	.
16c	.	.
16B-	8b- 8bb-)	.
16A-JJ	.	.
16G-LL	8dd-' 8ddd-'	.
16A-	.	.
16G-	8dd-' 8ddd-'J	.
16FJJ	.	.
=226	=226	=226
!	!LO:TX:a:B:t=Ritard.	!
16EnLL	4dd- (4ddd-	.
16F	.	.
16Gn	.	.
16A-JJ	.	.
16B-LL	[4cc [4ccc)	.
16A-	.	.
16G	.	.
16FJJ	.	.
=227	=227	=227
16EnLL	4cc] (4ccc]	>
16F	.	.
16E	.	.
16D-JJ	.	.
16CLL	4en\ 4een\	.
16BB-	.	.
16AA-	.	.
16GGJJ	.	]]
=228	=228	=228
!	!LO:TX:a:B:t=a Tempo	!
4FF	16f 16ff)	p
.	16cLL	.
.	16f	.
.	16a-JJ	.
8.r	16ccLL	<
.	16c	.
.	16f	.
16F 16A-	16a-JJ	.
!!LO:LB:g=original
=229	=229	=229
4F 4A-	16r	.
.	16cLL	.
.	16f	.
.	16a-JJ	.
8.r	16ccLL	.
.	16c	.
.	16f	.
16F 16A-	16a-JJ	[
=230	=230	=230
*	*^	*
[2C 2F (2A-z	4ryy	16r	.
.	.	16BnLL	.
.	.	16dn	.
.	.	16a-JJ	.
.	(16bnLL	4bn	.
.	16B	.	.
.	16d	.	.
.	16a-JJ	.	.
=231	=231	=231	=231
8C] 8En 8G)	16bnLL	4bn	>
.	16Bn	.	.
8r	16en	.	.
.	16gJJ	.	.
4r	16ccLL)	4cc	.
.	16c	.	.
.	16e	.	.
.	16gJJ	.	]]
*	*v	*v	*
=232	=232	=232
4CC 4C	16r	.
.	16cLL	.
.	16en	.
.	16gJJ	.
8.r	16ccLL	.
.	16c	.
.	16e	.
16G 16B-X	16gJJ	.
=233	=233	=233
4G 4B-	16r	.
.	16cLL	<
.	16en	.
.	16gJJ	.
8.r	16ccLL	.
.	16c	.
.	16e	.
16G 16B-	16gJJ	[[
!!LO:LB:g=original
=234	=234	=234
*	*^	*
[2F 2G (2B-z	4ryy	16r	.
.	.	16cLL	.
.	.	16en	.
.	.	16gJJ	.
.	16ccLL	4cc	.
.	16c	.	.
.	16e	.	.
.	16gJJ	.	.
=235	=235	=235	=235
8F] 8A-)	16ccLL	4cc	>
.	16c	.	.
8r	16en	.	.
.	16gJJ	.	.
4r	16ccLL	4cc	.
.	16c	.	.
.	16f	.	.
.	16a-JJ	.	]]
*	*v	*v	*
=236	=236	=236
4FF 4F	16r	.
.	16fLL	<
.	16an	.
.	16ccJJ	.
8.r	16ffLL>	.
.	16f	.
.	16a	.
16c 16e-X	16ccJJ	.
=237	=237	=237
4c 4e-	16r	.
.	16fLL	.
.	16an	.
.	16ccJJ	.
8.r	16ffLL>	.
.	16f	.
.	16a	.
16c 16e-	16ccJJ	.
=238	=238	=238
*	*^	*
[2B- [2c [2e-z	4ryy	16r	.
.	.	16fLL	.
.	.	16an	.
.	.	16ccJJ	.
.	16ffLL	4ff	.
.	16f	.	.
.	16a	.	.
.	16ccJJ	.	.
*	*v	*v	*
!!LO:LB:g=original
=239	=239	=239
8B-] 8c] (8e-L]	16f 16anLL	>
.	16ff	.
8B- 8d-	16f 16b-	.
.	16ffJJ	.
8A-X 8c	16f 16ccLL	.
.	16ff	.
8G 8B-J)	16f 16dd-	.
.	16ffJJ	]]
=240	=240	=240
*	*^	*
4C 4F 4A-	16r	4ryy	.
.	16cLL	.	p
.	16f	.	.
.	16a-XJJ	.	.
8.r	16ccLL	4cc	.
.	16c	.	.
.	16f	.	.
16F 16A-	16a-JJ	.	.
=241	=241	=241	=241
4C 4G 4B-	16ccLL	4cc	.
.	16c	.	.
.	16g	.	.
.	16b-JJ	.	.
8.r	16ccLL	4cc	.
.	16c	.	.
.	16en	.	.
16En 16G	16gJJ	.	.
*	*v	*v	*
=242	=242	=242
16FLL	4c 4f 4a- 4cc	.
16c	.	.
16A-	.	.
16FJJ	.	.
16CLL	8.r	.
16A-	.	.
16F	.	.
16CJJ	16ff 16aa-	.
=243	=243	=243
16AA-LL	4ff 4aa-	.
16F	.	.
16C	.	.
16AA-JJ	.	.
16FFLL	8.r	.
16C	.	.
16AA-	.	.
16FFJJ	16ff 16aa-	.
!!LO:LB:g=original
=244	=244	=244
16CCLL	2ff (2aa-	sf
16FF	.	.
16AA-	.	.
16CJJ	.	.
16BBnLL	.	.
16C	.	.
16BB	.	.
16CJJ	.	.
=245	=245	=245
16BBnLL	8een 8gg)	.
16C	.	.
16GG	8r	.
16CJJ	.	.
16EEnLL	4r	.
16C	.	.
16GG	.	.
16CJJ	.	.
=246	=246	=246
16CCLL	4r	.
16EEn	.	.
16GG	.	.
16CJJ	.	.
16EELL	8.r	.
16GG	.	.
16C	.	.
16EnJJ	16gg 16bb-X	.
=247	=247	=247
16GGLL	4gg 4bb-	.
16C	.	.
16En	.	.
16GJJ	.	.
16CLL	8.r	.
16E	.	.
16G	.	.
16cJJ	16gg 16bb-	.
=248	=248	=248
16FLL	2gg (2bb-	sf
16A-	.	.
16c	.	.
16fJJ	.	.
16enLL	.	.
16f	.	.
16e	.	.
16fJJ	.	.
!!LO:LB:g=original
=249	=249	=249
16enLL	8ff 8aa-)	.
16f	.	.
16c	8r	.
16fJJ	.	.
16A-LL	4r	.
16f	.	.
16c	.	.
16fJJ	.	.
=250	=250	=250
16FLL	4r	.
16An	.	.
16c	.	.
16fJJ	.	.
*clefG2	*	*
16AnLL	8.r	.
16c	.	.
16f	.	.
16anJJ	16ccc 16eee-X	.
=251	=251	=251
16cLL	4ccc 4eee-	.
16f	.	.
16an	.	.
16ccJJ	.	.
16fLL>	8.r	.
16a	.	.
16cc	.	.
16ffJJ	16ccc 16eee-	.
=252	=252	=252
16anLL	[2ccc [2eee-	sf
16ff	.	.
16een	.	.
16ffJJ	.	.
16aLL	.	.
16ff	.	.
16a	.	.
16ffJJ	.	.
=253	=253	=253
16anLL	8ccc] (8eee-L]	>
16ff	.	.
16b-	8bb- 8ddd-	.
16ffJJ	.	.
16ccLL	8aa- 8ccc	.
16ff	.	.
16dd-	8gg 8bb-J)	.
16ffJJ	.	]]
!!LO:LB:g=original
=254	=254	=254
16cLL	4ff 4aa-	.
16f	.	.
16a-	.	.
16ccJJ	.	.
16bnLL	8.r	.
16cc	.	.
16b	.	.
16ccJJ	16ff 16aa- 16fff	.
=255	=255	=255
16cLL	4gg 4bb- 4ggg	.
16en	.	.
16g	.	.
16ccJJ	.	.
16cLL	8.r	.
16g	.	.
16b-	.	.
16ccJJ	16een 16gg 16eeen	.
=256	=256	=256
16F	16ff 16aa- 16fff	<
16f 16a-LL	16ccLL	.
16c 16cc	16ff	.
16f 16a-JJ	16aa-JJ	.
16c 16ccLL	16cccLL	.
16f 16a-	16ddd-	.
16c 16cc	16ccc	.
16f 16a-JJ	16bb-JJ	[[
=257	=257	=257
16c 16ccLL	16aa-LL	>
16f 16a-	16bb-	.
16c 16cc	16aa-	.
16f 16a-JJ	16ggJJ	.
16c 16ccLL	16ffLL	.
16f 16a-	16gg	.
16c 16cc	16aa-	.
16f 16a-JJ	16ffJJ	]]
=258	=258	=258
16F	16r	.
16f 16a-LL	16ccLL	<
16c 16cc	16ff	.
16f 16a-JJ	16aa-JJ	.
16c 16ccLL	16cccLL	.
16f 16a-	16ddd-	.
16c 16cc	16ccc	.
16f 16a-JJ	16bb-JJ	[[
!!LO:LB:g=original
=259	=259	=259
16c 16ccLL	16aa-LL	>
16f 16a-	16bb-	.
16c 16cc	16aa-	.
16f 16a-JJ	16ggJJ	.
16c 16ccLL	16ffLL	.
16f 16a-	16gg	.
16c 16cc	16aa-	.
16f 16a-JJ	16ffJJ	]]
*clefF4	*	*
=260	=260	=260
16AA-	16r	.
*	*8va	*
16G- 16A-LL	16gg-LL	<
16E- 16c	16ccc	.
16G- 16A-JJ	16eee-JJ	.
16E- 16cLL	16ggg-LL	.
16G- 16A-	16aaa-	.
16E- 16c	16ggg-	.
16G- 16A-JJ	16fffJJ	[[
=261	=261	=261
16AA-	16eee-LL	>
16G- 16A-LL	16fff	.
16E- 16c	16eee-	.
16G- 16A-JJ	16ddd-JJ	.
16E- 16cLL	16cccLL	.
16G- 16A-	16ddd-	.
16E- 16c	16eee-	.
16G- 16A-JJ	16cccJJ	]]
=262	=262	=262
16AA-	16r	.
16G- 16A-LL	16gg-LL	<
16E- 16c	16ccc	.
16G- 16A-JJ	16eee-JJ	.
16E- 16cLL	16ggg-LL	.
16G- 16A-	16aaa-	.
16E- 16c	16ggg-	.
16G- 16A-JJ	16fffJJ	[[
=263	=263	=263
16AA-	16eee-LL	>
16G- 16A-LL	16fff	.
16E- 16c	16eee-	.
16G- 16A-JJ	16ddd-JJ	.
16E- 16cLL	16cccLL<	.
16G- 16A-	16bb-	.
16E- 16c	16aa-	.
16G- 16A-JJ	16gg-JJ	]]
!!LO:LB:g=original
=264	=264	=264
16D-	16ffLL	.
*clefG2	*	*
16d- 16fLL	16aa-	.
16A- 16a-	16ddd-	.
16d- 16fJJ	16fffJJ	.
16A- 16a-LL	16aaa-LL	.
16d- 16f	16bbb-	.
16A- 16a-	16aaa-	.
16d- 16fJJ	16ggg-JJ	.
*clefF4	*	*
=265	=265	=265
16D-	16fffLL	.
*clefG2	*	*
16d- 16fLL	16ggg-	.
16A- 16a-	16fff	.
16d- 16fJJ	16eee-JJ	.
16A- 16a-LL	16ddd-LL	.
16d- 16f	16eee-	.
16A- 16a-	16fff	.
16d- 16fJJ	16ddd-JJ	.
*clefF4	*	*
=266	=266	=266
16D-	16r	.
*clefG2	*	*
16d- 16fLL	16aa-LL	<
16A- 16a-	16ddd-	.
16d- 16fJJ	16fffJJ	.
8a-'L	16aaa-LL	.
.	16bbb-	.
8dd-'J	16aaa-	.
.	16ggg-JJ	.
=267	=267	=267
8ff'L	16fffLL	.
.	16ggg-	.
8aa-'	16aaa-	.
.	16ggg-JJ	.
8ddd-'	16fffLL	.
.	16ggg-	.
8ddd-'J	16aaa-	.
.	16fffJJ	.
=268	=268	=268
!	!	!LO:DY:b=2
4.bb- (4.ddd-	16r	sfp
.	16ggg-LL	.
.	16aaa-	.
.	16ggg-JJ	.
.	16aaa-LL	.
.	16ggg-	.
8aa- 8ccc	16fff	.
.	16ggg-JJ	.
!!LO:LB:g=original
=269	=269	=269
4ggn 4bb-	16r	.
.	16eeenLL	.
.	16fff	.
.	16eeeJJ	.
4aa- 4ccc)	16r	.
.	16fffLL	.
.	16gggn	.
.	16fffJJ	.
=270	=270	=270
!	!	!LO:DY:b=2
4.bb- (4.ddd-	16r	sfp
.	16ggg-LL	.
.	16aaa-	.
.	16ggg-JJ	.
.	16aaa-LL	.
.	16ggg-	.
8aa- 8ccc	16fff	.
.	16ggg-JJ	.
=271	=271	=271
4gg 4bb-	16r	.
.	16eeenLL	.
.	16fff	.
.	16eeeJJ	.
4aa- 4ccc)	16r	.
.	16fffLL	.
.	16gggn	.
.	16fffJJ	.
=272	=272	=272
!	!	!LO:DY:b=2
4.bb- (4.ddd-	16r	sfp
.	16ggg-LL	.
.	16aaa-	.
.	16ggg-JJ	.
.	16aaa-LL	.
.	16ggg-	.
8aa- 8ccc	16fff	.
.	16ggg-JJ	.
=273	=273	=273
4gg 4bb-	16r	.
.	16eeenLL	.
.	16fff	.
.	16eeeJJ	.
4ff 4aa-)	16r	.
.	16ddd-LL	.
.	16eee-	.
.	16ddd-JJ	.
*	*X8va	*
!!LO:LB:g=original
=274	=274	=274
4een (4gg	16r	<
.	16cccLL	.
.	16ddd-	.
.	16cccJJ	.
4ddn 4ff	16r	.
.	16bbnLL	.
.	16ccc	.
.	16bbJJ	.
=275	=275	=275
4dd-X 4ff	16r	.
.	16bb-XLL	.
.	16ccc	.
.	16bb-JJ	.
4cc 4ff)	16r	.
.	16aa-LL	.
.	16bb-	.
.	16aa-JJ	.
=276	=276	=276
*^	*	*
(4bn	2bn	16r	>
.	.	16aa-LL	.
.	.	16bb-	.
.	.	16aa-JJ	.
4ddn	.	16r	.
.	.	16ggLL	.
.	.	16aa-	.
.	.	16ggJJ	.
=277	=277	=277	=277
*	*^	*	*
2cc	4a-	2c	16r	.
.	.	.	16ffLL	.
.	.	.	16gg	.
.	.	.	16ffJJ	.
.	4g)	.	16r	.
.	.	.	16eenLL	.
.	.	.	16ff	.
.	.	.	16eeJJ	.
*	*v	*v	*	*
*v	*v	*	*
*clefF4	*	*
=278	=278	=278
!	!	!LO:DY:b=2
4.BB- 4.D- (>4.G-	16r	sfp
.	16d-LL	.
.	16dd-	.
.	16d-JJ	.
.	16dd-LL	.
.	16d-	.
8AA- 8C 8F	16dd-	.
.	16d-JJ	.
=279	=279	=279
4GGn 4BB- 4En	16r	.
.	16d-LL	.
.	16dd-	.
.	16ccJJ	.
4AA- 4C 4F)	16b-LL	.
.	16a-	.
.	16g	.
.	16fJJ	.
!!LO:LB:g=original
=280	=280	=280
!	!	!LO:DY:b=2
4.BB- 4.D- (>4.G-	16r	sfp
.	16dd-LL	.
.	16ddd-	.
.	16dd-JJ	.
.	16ddd-LL	.
.	16dd-	.
8AA- 8C 8F	16ddd-	.
.	16dd-JJ	.
=281	=281	=281
4GGn 4BB- 4En	16r	.
.	16dd-LL	.
.	16ddd-	.
.	16cccJJ	.
4AA- 4C 4F)	16bb-LL	.
.	16aa-	.
.	16gg	.
.	16ffJJ	.
=282	=282	=282
!	!	!LO:DY:b=2
4.BB- 4.D- (>4.G-	16r	sfp
.	16d-LL	.
.	16dd-	.
.	16d-JJ	.
.	16dd-LL	.
.	16d-	.
8AA- 8C 8F	16dd-	.
.	16d-JJ	.
=283	=283	=283
4GGn 4BB- 4En	16r	>
.	16dd-LL	.
.	16d-	.
.	16dd-JJ	.
4FF 4AA- 4D-	16r	.
.	16ddd-LL	.
.	16dd-	.
.	16ddd-JJ	.
=284	=284	=284
4EEn 4GG 4C	16r	.
.	16cccLL	.
.	16cc	.
.	16cccJJ	.
4DDn 4FF 4AA- 4BBn	16r	.
.	16bbnLL	.
.	16bn	.
.	16bbJJ	.
!!LO:LB:g=original
=285	=285	=285
4EEn 4GG 4BB-X	16r	.
.	16bb-XLL	.
.	16b-X	.
.	16bb-JJ	.
4FF 4AA-)	16r	.
.	16aa-LL	.
.	16a- 16cc	.
.	16aa-JJ	.
=286	=286	=286
*^	*	*
(4AA-	2BBBn	16r	>
.	.	16aa-LL	.
.	.	16a- 16ddn	.
.	.	16aa-JJ	.
4GG	.	16r	.
.	.	16ggLL	.
.	.	16g 16dd	.
.	.	16ggJJ	.
=287	=287	=287	=287
4FF	2CC'	16r	.
.	.	16ffLL	.
.	.	16f 16a-	.
.	.	16ffJJ	.
4EEn)	.	16r	.
.	.	16eenLL	.
.	.	16en 16g	.
.	.	16eeJJ	.
*v	*v	*	*
=288	=288	=288
8FFF 8AAA- 8CC 8FF	16f 16a- 16cc 16ff	f
.	16cLL	.
8r	16f	.
.	16a-JJ	.
16r	16ccLL	.
16CLL	16dd-	.
16F	16cc	.
16A-JJ	16b-JJ	.
=289	=289	=289
16cLL	16a-LL	.
16d-	16b-	.
16c	16a-	.
16B-JJ	16gJJ	.
16A-LL	16fLL	.
16G	16e-	.
16F	16d-	.
16E-JJ	16cJJ	.
*	*clefF4	*
!!LO:LB:g=original
=290	=290	=290
16D-LL	16B-LL	.
16C	16A-	.
16BB-	16G	.
16AA-JJ	16FJJ	.
16GGLL	8En	.
16AA-	.	.
!	!	!LO:DY:rj
16BB-	8C 8E 8G 8c	sf
16AA-JJ	.	.
=291	=291	=291
16GGLL	8C 8En 8B- 8cL	.
16FF	.	.
16EEn	8C 8E 8B- 8c	.
16DDnJJ	.	.
16CCLL	8C 8E 8B- 8c	.
16BBB-	.	.
16AAA-	8C 8E 8B- 8cJ	.
16GGGJJ	.	.
=292	=292	=292
8FFF 8AAA- 8CC 8FF	16C 16F 16A- 16c	f
*	*clefG2	*
.	16ccLL	.
8r	16ff	.
.	16aa-JJ	.
*clefG2	*	*
16r	16cccLL	.
16cLL	16ddd-	.
16f	16ccc	.
16a-JJ	16bb-JJ	.
=293	=293	=293
16ccLL	16aa-LL	.
16dd-	16bb-	.
16cc	16aa-	.
16b-JJ	16ggJJ	.
16a-LL	16ffLL	.
16g	16ee-	.
16f	16dd-	.
16e-JJ	16ccJJ	.
=294	=294	=294
16d-LL	16b-LL	.
16c	16a-	.
16B-	16g	.
16A-JJ	16fJJ	.
*clefF4	*	*
16GLL	8enL	.
16A-	.	.
16B-	8c 8e 8g 8cczJ	.
16A-JJ	.	.
!!LO:LB:g=original
=295	=295	=295
16GLL	8c 8en 8b- 8ccL	.
16F	.	.
16En	8c 8e 8b- 8cc	.
16DnJJ	.	.
16CLL	8c 8e 8b- 8cc	.
16BB-	.	.
16AA-	8c 8e 8b- 8ccJ	.
16GGJJ	.	.
=296	=296	=296
16FFLL	4c 4f 4a- 4cc	.
16GG	.	.
16AA-	.	.
16BB-JJ	.	.
16CLL	8r	.
16Dn	.	.
16En	8cc 8ff 8aa- 8cccz	.
16FJJ	.	.
=297	=297	=297
16GLL	8cc 8een 8bb- 8cccL	.
16F	.	.
16En	8cc 8ee 8bb- 8ccc	.
16DnJJ	.	.
16CLL	8cc 8ee 8bb- 8ccc	.
16BB-	.	.
16AA-	8cc 8ee 8bb- 8cccJ	.
16GGJJ	.	.
=298	=298	=298
16FFLL	4cc 4ff 4aa- 4ccc	.
16GG	.	.
16AA-	.	.
16BB-JJ	.	.
16CLL	8r	.
16Dn	.	.
16En	8c 8f 8a- 8ccz	.
16FJJ	.	.
=299	=299	=299
16GLL	8c 8en 8b- 8ccL	.
16F	.	.
16En	8c 8e 8b- 8cc	.
16DnJJ	.	.
16CLL	8c 8e 8b- 8cc	.
16BB-	.	.
16AA-	8c 8e 8b- 8ccJ	.
16GGJJ	.	.
!!LO:LB:g=original
=300	=300	=300
*>B1	*>B1	*>B1
16FFLL	8c 8f 8a- 8cc	.
16EEn	.	.
16DDn	8cc 8ff 8aa- 8cccL	<
16CCJJ	.	.
16BBB-LL	8cc 8ff 8aa- 8ccc	.
16AAA-	.	.
16GGG	8cc 8ff 8aa- 8cccJ	.
16FFFJJ	.	.
=301	=301	=301
16GGGLL	8cc 8een 8bb- 8cccL	.
16AAA-	.	.
16BBB-	8cc 8ee 8bb- 8ccc	.
16CCJJ	.	.
16DDnLL	8cc 8ee 8bb- 8ccc	.
16EEn	.	.
16FF	8cc 8ee 8bb- 8cccJ	.
16GGJJ	.	.
=302	=302	=302
8GGG- 8GG-	16cc 16ee-X 16aan 16ccc	ff
.	16AnLL	.
8r	16c	.
.	16e-JJ	.
4r	16g-LL	.
.	16an	.
.	16cc	.
.	16ee-JJ	.
=303	=303	=303
2r	16gg-LL	.
.	16aan	.
.	16ccc	.
.	16eee-JJ	.
.	16ggg-LL	.
.	16eee-	.
.	16ccc	.
.	16aaJJ	.
=304	=304	=304
2r	16gg-LL	.
.	16ee-	.
.	16cc	.
.	16anJJ	.
.	16g-LL	.
.	16e-	.
.	16c	.
.	16AnJJ	.
*	*clefF4	*
!!LO:LB:g=original
=305	=305	=305
4r	16G-LL	.
.	16E-	.
.	16C	.
.	16AAnJJ	.
16r	16GG-	.
16EE-LL	16r	.
16CC	8r	.
16AAAnJJ	.	.
=306	=306	=306
16GGG-LL	2r	>
16EE-	.	.
16CC	.	.
16AAAnJJ	.	.
16GGG-LL	.	.
16EE-	.	.
16CC	.	.
16AAAJJ	.	.
=307	=307	=307
16GGG-LL	2r	.
16EE-	.	.
16CC	.	.
16AAAnJJ	.	.
16GGG-LL	.	.
16EE-	.	.
16CC	.	.
16AAAJJ	.	.
*	*clefG2	*
=308:|!	=308:|!	=308:|!
*>B2	*>B2	*>B2
4FF	16c 16f 16a- 16ccLL	.
.	16g	.
.	16a-	.
.	16b-JJ	.
8r	16ccLL	.
.	16ddn	.
8CC 8FF 8AA- 8C	16een	.
.	16ffJJ	.
=309	=309	=309
8CC 8EEn 8GG 8BB- 8CL	16ggLL	sf
.	16ff	.
8CC 8EE 8GG 8BB- 8C	16een	.
.	16dd-XJJ	.
8CC 8EE 8GG 8BB- 8C	16ccLL	.
.	16b-	.
8CC 8EE 8GG 8BB- 8CJ	16a-	.
.	16gJJ	.
=310	=310	=310
4CC 4FF 4AA- 4C	16fLL	.
.	16g	.
.	16a-	.
.	16b-JJ	.
8r	16ccLL	.
.	16ddn	.
8C 8F 8A- 8c	16een	.
.	16ffJJ	.
!!LO:LB:g=original
=311	=311	=311
8C 8En 8G 8B- 8cL	16ggLL	sf
.	16ff	.
8C 8E 8G 8B- 8c	16een	.
.	16dd-XJJ	.
8C 8E 8G 8B- 8c	16ccLL<	.
.	16b-	.
8C 8E 8G 8B- 8cJ	16a-	.
.	16gJJ	.
=312	=312	=312
!	!LO:TX:a:B:t=Sempre pi&ugrave; allegro	!
4C 4F 4A- 4c	16fLL<	.
.	16g	.
.	16a-	.
.	16b-JJ	.
8r	16ccLL	.
.	16ddn	.
8CC 8FF 8AA- 8C	16een	.
.	16ffJJ	.
=313	=313	=313
8CC 8EEn 8GG 8BB- 8CL	16ggLL	.
.	16ff#	.
8CC 8EE 8GG 8BB- 8C	16gg	.
.	16ff#JJ	.
8CC 8EE 8GG 8BB- 8C	16ggLL	.
.	16ff#	.
8CC 8EE 8GG 8BB- 8CJ	16gg	.
.	16ff#JJ	.
=314	=314	=314
8CC 8EEn 8GG 8BB- 8CL	16ggLL	.
.	16ff#	.
8CC 8EE 8GG 8BB- 8C	16gg	.
.	16ff#JJ	.
8CC 8EE 8GG 8BB- 8C	16ggLL	.
.	16ff#	.
8CC 8EE 8GG 8BB- 8CJ	16gg	.
.	16ff#JJ	.
=315	=315	=315
8CC 8EEn 8GG 8BB- 8CL	16ggLL	.
.	16ffn	.
8CC 8EE 8GG 8BB- 8C	16een	.
.	16dd-XJJ	.
8CC 8EE 8GG 8BB- 8C	16ccLL<	.
.	16b-	.
8CC 8EE 8GG 8BB- 8CJ	16a-	.
.	16gJJ	.
!!LO:LB:g=original
=316!|:	=316!|:	=316!|:
*>D	*>D	*>D
!!!OMD: Presto
*MM180	*MM180	*MM180
2FFF 2AAA- 2CC 2FF	2A- 2c 2f	ff
=317	=317	=317
2FFF 2AAA- 2CC 2FF	2A- 2c 2a-	sf
=318	=318	=318
8CC' 8C'L	8G' 8B-' 8g'L	p
8CC'	8G' 8B-' 8en'	.
8CC'	8G' 8B-' 8c'	.
8CC'J	8G' 8B-' 8e'J	.
=319	=319	=319
8FFF' 8FF'L	8A-' 8c' 8f'L	.
8FF'	8A-' 8c'	.
8FF'	8A-' 8c' 8f'	.
8FF'J	8A-' 8c' 8a-'J	.
=320	=320	=320
8CC' 8C'L	8G 8B- 8gL	.
8CC'	8G' 8B-' 8en'	.
8CC'	8G' 8B-' 8c'	.
8CC'J	8G' 8B-' 8e'J	.
=321	=321	=321
8FFF' 8FF'L	8A-' 8c' 8f'L	.
8FF'	8A-' 8c'	.
8FF'	8A-' 8c' 8f'	.
8FF'J	8A-' 8c' 8a-'J	.
=322	=322	=322
8GGG'L	8G' 8c' 8g'L	.
8GG'	8G' 8c' 8e-X'	.
8GGG'	8G' 8Bn' 8dn'	.
8GGG'J	8G' 8B' 8g'J	.
!!LO:LB:g=original
=323	=323	=323
*>D1	*>D1	*>D1
4CC	4c	.
8r	8r	.
(32CCLLL	(24cLL	.
32BBB-	.	.
.	24dn	.
32AAA-	.	.
.	24enJJ)	.
32GGGJJJ)	.	.
=324:|!	=324:|!	=324:|!
*>D2	*>D2	*>D2
4CC	4c	.
8r	8r	.
(24EE-XLL	(24e-XLL	.
24FF	24f	.
24GGJJ)	24gJJ)	.
=325!|:	=325!|:	=325!|:
*>E	*>E	*>E
2AAA- 2CC 2EE- 2AA-	2c 2e- 2a-	ff
=326	=326	=326
2AAA- 2CC 2EE- 2AA-	2c 2e- 2cc	sf
=327	=327	=327
8EE-' 8E-'L	8B- 8d- 8b-L	p
8EE-'	8B-' 8d-' 8g'	.
8EE-'	8B-' 8d-' 8e-'	.
8EE-'J	8B-' 8d-' 8g'J	.
=328	=328	=328
8AAA-' 8AA-'L	8c' 8e-' 8a-'L	.
8AA-'	8c' 8e-'	.
8AA-'	8c' 8e-' 8a-'	.
8AA-'J	8c' 8e-' 8cc'J	.
=329	=329	=329
8EE-' 8E-'L	8B-' 8d-' 8b-'L	.
8EE-'	8B-' 8d-' 8g'	.
8EE-'	8B-' 8d-' 8e-'	.
8EE-'J	8B-' 8d-' 8g'J	.
!!LO:LB:g=original
=330	=330	=330
8AAA-' 8AA-'L	8A-' 8c' 8a-'L	.
8AA-'	8c' 8e-'	.
8AA-'	8c' 8e-' 8a-'	.
8AA-'J	8c' 8e-' 8cc'J	.
=331	=331	=331
8FFF' 8FF'L	8c' 8e-' 8an'L	.
8FFF'	8c' 8e-' 8f'	.
8FFF'	8c' 8e-' 8a'	.
8FFF'J	8c' 8e-' 8cc'J	.
=332	=332	=332
8BBB-' 8BB-'L	8d-' 8f' 8b-'L	.
8BB-	8d-' 8f'	.
8BB-'	8d-' 8f' 8b-'	.
8BB-'J	8d-' 8f' 8dd-'J	.
=333	=333	=333
8CC'L	8c' 8f' 8cc'L	.
8C'	8c' 8f' 8a-X'	.
8CC'	8c' 8en' 8g'	.
8CC'J	8c' 8e' 8cc'J	.
=334	=334	=334
*>E1	*>E1	*>E1
4FFF 4FF	4f	.
8r	8r	.
(24EE-XLL	(24e-XLL	.
24FF	24f	.
24GGJJ)	24gJJ)	.
=335:|!	=335:|!	=335:|!
*>E2	*>E2	*>E2
16FFF 16FF	16fLL	f
[[16FFLL	16c	.
[[16AA-	16f	.
[16CJJ	16a-JJ	.
[4F C_< AA-__ FF__	16ccLL	sf
.	16dd-	.
.	16cc	.
.	16b-JJ	.
!!LO:LB:g=original
=336	=336	=336
*>F	*>F	*>F
16F] C] AA-] FF]	16a-LL	.
[[16FFLL	16b-	.
[[16AA-	16a-	.
[16CJJ	16gJJ	.
[4Fz> C_< AA-__ FF__	16fLL	.
.	16g	.
.	16a-	.
.	16fJJ	.
=337	=337	=337
16F] C] AA-] FF]	16a-LL	.
[[16FFLL	16c	.
[[16AA-	16f	.
[16CJJ	16a-JJ	.
[4Fz> C_< AA-__ FF__	16ccLL	.
.	16dd-	.
.	16cc	.
.	16b-JJ	.
=338	=338	=338
16F] C] AA-] FF]	16a-LL	.
[[16FFLL	16b-	.
[[16AA-	16a-	.
[16CJJ	16gJJ	.
4Fz> C] AA-]] FF]]	16fLL	.
.	16g	.
.	16a-	.
.	16fJJ	.
=339	=339	=339
16r	16g-LL	.
[[<16BB-LL	16d-	.
[[<16D-	16g-	.
[16G-JJ	16b-JJ	.
[4B-z> G-__< D-__ BB-__	16dd-LL	.
.	16ee-	.
.	16dd-	.
.	16ccJJ	.
=340	=340	=340
16B-] G-] D-] BB-]	16b-LL	.
[[<16BB-LL	16cc	.
[[<16D-	16b-	.
[<16G-JJ	16a-JJ	.
4B-z> G-] D-]] BB-]]	16g-LL	.
.	16a-	.
.	16g-	.
.	16fJJ	.
!!LO:LB:g=original
=341	=341	=341
16r	16enLL	.
[[<16CLL	16f	.
[[<16Gn	16gn	.
[<16B-JJ	16a-JJ	.
[4cz> B-_< G__ C__	16b-LL	.
.	16a-	.
.	16g	.
.	16fJJ	.
=342	=342	=342
16c] B-] G] C]	16enLL	.
[[<16CLL	16f	.
[[<16G	16g	.
[<16B-JJ	16a-JJ	.
4cz> B-] G]] C]]	16b-LL	.
.	16cc	.
.	16ddn	.
.	16eenJJ	.
=343	=343	=343
!	!	!LO:DY:t=pi&ugrave; %s
16r	16ffLL	f
[[<16FLL	16cc	.
[[<16A-	16ff	.
[16cJJ	16aa-JJ	.
[4fz> c_< A-__ F__	16cccLL	.
.	16ddd-	.
.	16ccc	.
.	16bb-JJ	.
=344	=344	=344
16f] c] A-] F]	16aa-LL	.
[[<16FLL	16bb-	.
[[<16A-	16aa-	.
[16cJJ	16ggJJ	.
[4fz> c_< A-__ F__	16ffLL	.
.	16gg	.
.	16aa-	.
.	16ffJJ	.
=345	=345	=345
16f] c] A-] F]	16aa-LL	.
[[<16FLL	16cc	.
[[<16A-	16ff	.
[<16cJJ	16aa-JJ	.
[4fz> c_< A-__ F__	16cccLL	.
.	16ddd-	.
.	16ccc	.
.	16bb-JJ	.
!!LO:LB:g=original
=346	=346	=346
16f] c] A-] F]	16aa-LL	.
[[<16FLL	16bb-	.
[[<16A-	16aa-	.
[<16cJJ	16ggJJ	.
4fz> c] A-]] F]]	16ffLL	.
.	16gg	.
.	16aa-	.
.	16ffJJ	.
*clefG2	*	*
=347	=347	=347
16r	16gg-LL	.
[[<16B-LL	16dd-	.
[[<16d-X	16gg-	.
[16g-JJ	16bb-JJ	.
[4b-z> g-_< d-__ B-__	16ddd-LL	.
.	16eee-	.
.	16ddd-	.
.	16cccJJ	.
=348	=348	=348
16b-] g-] d-] B-]	16bb-LL	.
[[<16B-LL	16ccc	.
[[<16d-	16bb-	.
[<16g-JJ	16aa-JJ	.
4b-z> g-] d-]] B-]]	16gg-LL	.
.	16aa-	.
.	16gg-	.
.	16ffJJ	.
=349	=349	=349
16r	16eenLL	.
[[<16cLL	16ff	.
[[<16en	16ggn	.
[<16gnJJ	16aa-JJ	.
4b-z> g] e]] c]	16bb-LL	.
.	16aa-	.
.	16gg	.
.	16ffJJ	.
*clefF4	*	*
=350	=350	=350
16r	16eenLL	.
[[<16CLL	16ff	.
[[<16En	16gg	.
[<16GJJ	16aa-JJ	.
4cz> G] E]] C]]	16bb-LL	.
.	16ccc	.
.	16dddn	.
.	16eeenJJ	.
!!LO:LB:g=original
=351	=351	=351
*	*8va	*
8FF 8F	16fffLL	ff
.	16aa-	.
8r	16ccc	.
.	16fffJJ	.
8r	[4aaa-	.
*clefG2	*	*
[[<16ccLL	.	.
[<16ffJJ	.	.
=352	=352	=352
*^	*	*
4.aa-	4.ff] cc]]	16aaa-LL]	.
.	.	16ccc	.
.	.	16fff	.
.	.	16aaa-JJ	.
.	.	16ccccLL	.
.	.	16aaa-	.
8c	8ryy	16ggg	.
.	.	16eeenJJ	.
*v	*v	*	*
=353	=353	=353
8f	16fffLL	.
.	16aa-	.
8r	16ccc	.
.	16fffJJ	.
8r	[4aaa-	.
[[<16ccLL	.	.
[<16ffJJ	.	.
=354	=354	=354
*^	*	*
4.aa-	4.ff]] cc]	16aaa-LL]	.
.	.	16ccc	.
.	.	16fff	.
.	.	16aaa-JJ	.
.	.	16ccccLL	.
.	.	16aaa-	.
8c	8ryy	16ggg	.
.	.	16eeenJJ	.
*v	*v	*	*
=355	=355	=355
8f	16fffLL	.
.	16aa-	.
8r	16ccc	.
.	16fffJJ	.
8r	[4aaa-	.
[[<16ccLL	.	.
[<16ffJJ	.	.
!!LO:LB:g=original
=356	=356	=356
*^	*	*
4.aa-	4.ff]] 4.cc]	16aaa-LL]	.
.	.	16ccc	.
.	.	16fff	.
.	.	16aaa-JJ	.
.	.	16ccccLL	.
.	.	16aaa-	.
8c	8ryyy	16ggg	.
.	.	16eeenJJ	.
*v	*v	*	*
=357	=357	=357
8f	16fffLL	.
.	16aa-	.
8r	16ccc	.
.	16fffJJ	.
8r	[4aaa-z	.
[[<16ccLL	.	.
[<16ffJJ	.	.
=358	=358	=358
4.aa- ff] cc]]	16aaa-LL]	.
.	16ccc	.
.	16fff	.
.	16aaa-JJ	.
.	16ccccLL	.
.	16aaa-	.
8c	16ggg	.
.	16eeenJJ	.
=359	=359	=359
4f	16fffLL	.
.	16ccc	.
.	16fff	.
.	16aaa-JJ	.
8r	16ccccLL	.
.	16aaa-	.
8c	16ggg	.
.	16eeenJJ	.
*clefF4	*	*
=360	=360	=360
4F	16fffLL	<
.	16ccc	.
.	16fff	.
.	16aaa-JJ	.
8r	16ccccLL	.
.	16aaa-	.
8C	16ggg	.
.	16eeenJJ	.
!!LO:LB:g=original
=361	=361	=361
4FF	16fffLL	.
.	16ccc	.
.	16fff	.
.	16aaa-JJ	.
8r	16ccccLLz	.
.	16aaa-	.
8CC	16ggg	.
.	16eeenJJ	.
=362	=362	=362
8FFFL	16ccccLLz	.
.	16aaa-	.
8CC	16ggg	.
.	16eeenJJ	.
8FFF	16ccccLLz	.
.	16aaa-	.
8CCJ	16ggg	.
.	16eeeJJ	.
=363	=363	=363
16FFFLL	16ccccLL	ff
16AAA-	16aaa-	.
16CC	16fff	.
16FFJJ	16cccJJ	.
16FFFLL	16aaa-LL	.
16AAA-	16fff	.
16CC	16ccc	.
16FFJJ	16aa-JJ	.
=364	=364	=364
16FFFLL	16fffLL	.
16AAA-	16ccc	.
16CC	16aa-	.
16FFJJ	16ffJJ	.
*	*X8va	*
16FFFLL	16cccLL	.
16AAA-	16aa-	.
16CC	16ff	.
16FFJJ	16ccJJ	.
=365	=365	=365
16FFFLL	16aa-LL	.
16AAA-	16ff	.
16CC	16cc	.
16FFJJ	16a-JJ	.
16FFFLL	16ffLL	.
16AAA-	16cc	.
16CC	16a-	.
16FFJJ	16fJJ	.
!!LO:LB:g=original
=366	=366	=366
16FFFLL	16ccLL	.
16AAA-	16a-	.
16CC	16f	.
16FFJJ	16cJJ	.
16FFFLL	16a-LL	.
16AAA-	16f	.
16CC	16c	.
16FFJJ	16A-JJ	.
*	*clefF4	*
=367	=367	=367
16FFFLL	16fLL	.
16AAA-	16c	.
16CC	16A-	.
16FFJJ	16FJJ	.
16FFFLL	16cLL	.
16AAA-	16A-	.
16CC	16F	.
16FFJJ	16CJJ	.
=368	=368	=368
16FFFLL	16A-LL	.
16AAA-	16F	.
16CC	16C	.
16FFJJ	16AA-JJ	.
16FFFLL	16FLL<	.
16AAA-	16C	.
16CC	16AA-	.
16FFJJ	16CJJ	.
=369	=369	=369
8FFF 8AAA- 8CC 8FF	8AA-\ 8C\ 8F\	.
8r	8r	.
4r	4r	.
*	*clefG2	*
=370	=370	=370
8FFF 8AAA- 8CC 8FF	8f 8a- 8cc 8ff	.
8r	8r	.
4r	4r	.
=371	=371	=371
8FFF 8AAA- 8CC 8FF	8F 8A- 8c 8f	.
8r	8r	.
4r	4r	.
==	==	==
*-	*-	*-
!!!RDF**kern: > = above
!!!RDF**kern: < = below
!!!RDF**dynam: > = dim.
!!!verovio: beamFrenchStyle
!!!ENC: Craig Stuart Sapp
!!!END: 2008/02/21
!!!EED: Craig Stuart Sapp
!!!EEV: 2021/07/06
